src/assets/2005.svg

<svg width="2723" height="2503" fill="none" xmlns="http://www.w3.org/2000/svg">
  <g filter="url(#filter0_d)">
    <path d="M1701.36 520.439c-45.44-45.907 86.28-144.542-68.55-189.105C1426.23 271.877 448.986.771 448.986.771L25.328 654.248S451.83 1239.26 501.953 1294.97c50.122 55.71 366.228 277.98 443.342 277.98 77.115 0 140.565-71.89 161.775-51.63 21.22 20.26-125.039 112.41-39.49 203.41 85.55 91 242.31 98.17 353.78 149.56 111.48 51.39-127.86 473.12 319.92 545.55 447.79 72.43 392.08-312.98 424.05-369.72 31.98-56.74 128.84 29.98 178.96 0 50.12-29.97 43.4-144.86 101.52-187.02s76.32-22.16 154.26-48.65c77.94-26.48 113.3-197.45 91.37-237.35-21.93-39.91-83.5-107.5-95.02-130.2-11.31-22.3-16.49-36.25-29.6-71.56l-.72-1.95c-13.65-36.76 16.9-73.07 48.01-138.38 31.11-65.3 88.16-141.13 6.07-214.59-82.1-73.449-196.06 23.75-245.12-49.183-49.07-72.933 7.45-124.321-101.59-170.806-109.04-46.485-317.75 100.119-362.24 65.719-44.5-34.401 21.19-117.59-9.64-161.913-30.82-44.323-154.79-137.89-200.23-183.798z" fill="#fff"/>
  </g>
  <defs>
    <filter id="filter0_d" x=".328" y=".771" width="2722.51" height="2502.1" filterUnits="userSpaceOnUse" color-interpolation-filters="sRGB">
      <feFlood flood-opacity="0" result="BackgroundImageFix"/>
      <feColorMatrix in="SourceAlpha" values="0 0 0 0 0 0 0 0 0 0 0 0 0 0 0 0 0 0 127 0"/>
      <feOffset dy="49"/>
      <feGaussianBlur stdDeviation="12.5"/>
      <feColorMatrix values="0 0 0 0 0 0 0 0 0 0 0 0 0 0 0 0 0 0 0.25 0"/>
      <feBlend in2="BackgroundImageFix" result="effect1_dropShadow"/>
      <feBlend in="SourceGraphic" in2="effect1_dropShadow" result="shape"/>
    </filter>
  </defs>
</svg>

<svg width="2723" height="2503" viewBox="0 0 2723 2503" fill="none" xmlns="http://www.w3.org/2000/svg">
<g filter="url(#filter0_d)">
<path d="M1701.36 520.439C1655.92 474.532 1787.64 375.897 1632.81 331.334C1426.23 271.877 448.986 0.771484 448.986 0.771484L25.3281 654.248C25.3281 654.248 451.83 1239.26 501.953 1294.97C552.075 1350.68 868.181 1572.95 945.295 1572.95C1022.41 1572.95 1085.86 1501.06 1107.07 1521.32C1128.29 1541.58 982.031 1633.73 1067.58 1724.73C1153.13 1815.73 1309.89 1822.9 1421.36 1874.29C1532.84 1925.68 1293.5 2347.41 1741.28 2419.84C2189.07 2492.27 2133.36 2106.86 2165.33 2050.12C2197.31 1993.38 2294.17 2080.1 2344.29 2050.12C2394.41 2020.15 2387.69 1905.26 2445.81 1863.1C2503.93 1820.94 2522.13 1840.94 2600.07 1814.45C2678.01 1787.97 2713.37 1617 2691.44 1577.1C2669.51 1537.19 2607.94 1469.6 2596.42 1446.9C2585.11 1424.6 2579.93 1410.65 2566.82 1375.34L2566.1 1373.39C2552.45 1336.63 2583 1300.32 2614.11 1235.01C2645.22 1169.71 2702.27 1093.88 2620.18 1020.42C2538.08 946.971 2424.12 1044.17 2375.06 971.237C2325.99 898.304 2382.51 846.916 2273.47 800.431C2164.43 753.946 1955.72 900.55 1911.23 866.15C1866.73 831.749 1932.42 748.56 1901.59 704.237C1870.77 659.914 1746.8 566.347 1701.36 520.439Z" fill="white"/>
</g>
<defs>
<filter id="filter0_d" x="0.328125" y="0.771484" width="2722.51" height="2502.1" filterUnits="userSpaceOnUse" color-interpolation-filters="sRGB">
<feFlood flood-opacity="0" result="BackgroundImageFix"/>
<feColorMatrix in="SourceAlpha" type="matrix" values="0 0 0 0 0 0 0 0 0 0 0 0 0 0 0 0 0 0 127 0"/>
<feOffset dy="49"/>
<feGaussianBlur stdDeviation="12.5"/>
<feColorMatrix type="matrix" values="0 0 0 0 0 0 0 0 0 0 0 0 0 0 0 0 0 0 0.25 0"/>
<feBlend mode="normal" in2="BackgroundImageFix" result="effect1_dropShadow"/>
<feBlend mode="normal" in="SourceGraphic" in2="effect1_dropShadow" result="shape"/>
</filter>
</defs>
</svg>
